app/images/dist/icon-card.svg

<svg width="54" height="54" viewBox="0 0 54 54" fill="none" xmlns="http://www.w3.org/2000/svg">
<path fill-rule="evenodd" clip-rule="evenodd" d="M37.9928 10.1563L39.2414 9.45549C40.9119 8.51782 43.0479 9.07428 44.0124 10.6984L53.5315 26.7281C54.496 28.3522 53.9236 30.4289 52.2531 31.3666L21.6502 48.5445C19.9797 49.4822 17.8437 48.9257 16.8792 47.3016L9.84546 35.4571H3.49263C1.5637 35.4571 0 33.9368 0 32.0615V13.552C0 11.6766 1.5637 10.1563 3.49263 10.1563L37.9928 10.1563ZM11.5852 35.4571L18.184 46.5692C18.7324 47.4927 19.947 47.8092 20.8969 47.276L51.4998 30.0981C52.4497 29.5649 52.7751 28.384 52.2267 27.4605L42.7076 11.4308C42.2424 10.6474 41.2979 10.3009 40.4423 10.5391C41.5596 11.1055 42.3224 12.2421 42.3224 13.552V32.0615C42.3224 33.9368 40.7587 35.4571 38.8298 35.4571H11.5852ZM1.50662 13.552C1.50662 12.4856 2.39579 11.6211 3.49263 11.6211H38.8298C39.9266 11.6211 40.8158 12.4856 40.8158 13.552V32.0615C40.8158 33.1279 39.9266 33.9923 38.8298 33.9923H3.49263C2.39579 33.9923 1.50662 33.1279 1.50662 32.0615V13.552ZM5.41014 14.5507C4.84281 14.5507 4.3829 14.9978 4.3829 15.5494V20.6096C4.3829 21.1611 4.84281 21.6083 5.41014 21.6083H17.7371C18.3044 21.6083 18.7643 21.1611 18.7643 20.6096V15.5494C18.7643 14.9978 18.3044 14.5507 17.7371 14.5507H5.41014ZM5.88952 20.1435V16.0155H17.2577V20.1435H5.88952ZM4.3829 25.1371C4.3829 24.7326 4.72017 24.4047 5.13621 24.4047H18.011C18.427 24.4047 18.7643 24.7326 18.7643 25.1371C18.7643 25.5416 18.427 25.8695 18.011 25.8695H5.13621C4.72017 25.8695 4.3829 25.5416 4.3829 25.1371ZM24.2429 15.2831C24.2429 14.8786 23.9057 14.5507 23.4896 14.5507C23.0736 14.5507 22.7363 14.8786 22.7363 15.2831V16.3484C22.7363 16.7529 23.0736 17.0808 23.4896 17.0808C23.9057 17.0808 24.2429 16.7529 24.2429 16.3484V15.2831ZM29.5161 14.5507C29.9321 14.5507 30.2694 14.8786 30.2694 15.2831V16.3484C30.2694 16.7529 29.9321 17.0808 29.5161 17.0808C29.1001 17.0808 28.7628 16.7529 28.7628 16.3484V15.2831C28.7628 14.8786 29.1001 14.5507 29.5161 14.5507ZM36.2959 15.2831C36.2959 14.8786 35.9586 14.5507 35.5426 14.5507C35.1266 14.5507 34.7893 14.8786 34.7893 15.2831V16.3484C34.7893 16.7529 35.1266 17.0808 35.5426 17.0808C35.9586 17.0808 36.2959 16.7529 36.2959 16.3484V15.2831ZM26.8755 25.0671C25.0762 26.3691 23.4566 28.1035 22.3358 29.7379C22.105 30.0745 21.6373 30.1654 21.2911 29.9411C20.945 29.7167 20.8514 29.262 21.0822 28.9254C22.2899 27.1643 24.0259 25.3032 25.976 23.8921C27.9114 22.4916 30.1518 21.4671 32.3503 21.5421C32.9381 21.5622 33.4662 21.7014 33.879 22.0061C34.3057 22.3209 34.5341 22.7572 34.6107 23.2209C34.7538 24.0881 34.3777 25.0737 33.8601 25.9124C33.7161 26.1456 33.5549 26.3778 33.3792 26.605C33.443 26.714 33.4929 26.8254 33.5321 26.9351C33.6893 27.3761 33.6913 27.8428 33.6933 28.3041C33.6934 28.3415 33.6936 28.3789 33.6938 28.4162C34.9636 27.825 36.1653 27.0351 37.2558 26.1691C37.5773 25.9124 38.052 25.9576 38.3161 26.2701C38.575 26.5766 38.5316 27.0507 38.212 27.3011C36.9949 28.2717 35.6436 29.1519 34.2162 29.7962C33.316 30.2025 32.3168 29.947 32.2055 28.8466C32.186 28.6541 32.1861 28.4607 32.1862 28.2673C32.1863 28.1352 32.1864 28.0031 32.1802 27.8713C32.0173 28.0117 31.8496 28.1453 31.6783 28.2704C30.8217 28.8957 29.7825 29.3736 28.7314 29.331C28.4625 29.3201 28.0868 29.2589 27.8107 28.983C27.4798 28.6526 27.4959 28.2377 27.5833 27.9645C28.0764 26.4236 30.59 25.4256 32.1514 25.7551C32.3045 25.5593 32.4445 25.359 32.5682 25.1586C33.0412 24.3923 33.6453 23.052 32.2974 23.006C30.5924 22.9479 28.6896 23.7544 26.8755 25.0671Z" fill="white"/>
</svg>

<svg width="54" height="54" fill="none" xmlns="http://www.w3.org/2000/svg"><path fill-rule="evenodd" clip-rule="evenodd" d="M37.993 10.156l1.248-.7c1.67-.938 3.807-.382 4.771 1.242l9.52 16.03c.964 1.624.392 3.7-1.279 4.639L21.65 48.544c-1.67.938-3.806.382-4.77-1.242L9.844 35.457H3.493c-1.93 0-3.493-1.52-3.493-3.395v-18.51c0-1.875 1.564-3.396 3.493-3.396h34.5zM11.585 35.457l6.599 11.112c.548.924 1.763 1.24 2.713.707L51.5 30.098c.95-.533 1.275-1.714.727-2.637l-9.52-16.03c-.465-.784-1.41-1.13-2.265-.892 1.118.566 1.88 1.703 1.88 3.013v18.51c0 1.875-1.563 3.395-3.492 3.395H11.585zM1.507 13.552c0-1.066.889-1.93 1.986-1.93H38.83c1.097 0 1.986.864 1.986 1.93v18.51c0 1.066-.89 1.93-1.986 1.93H3.493c-1.097 0-1.986-.864-1.986-1.93v-18.51zm3.903.999c-.567 0-1.027.447-1.027.998v5.06c0 .552.46 1 1.027 1h12.327c.567 0 1.027-.448 1.027-1v-5.06c0-.551-.46-.998-1.027-.998H5.41zm.48 5.592v-4.128h11.368v4.128H5.89zm-1.507 4.994c0-.404.337-.732.753-.732h12.875c.416 0 .753.328.753.732a.743.743 0 01-.753.732H5.136a.743.743 0 01-.753-.732zm19.86-9.854a.743.743 0 00-.753-.732.743.743 0 00-.754.732v1.065c0 .405.338.733.754.733a.743.743 0 00.753-.733v-1.065zm5.273-.732c.416 0 .753.328.753.732v1.065a.743.743 0 01-.753.733.743.743 0 01-.753-.733v-1.065c0-.404.337-.732.753-.732zm6.78.732a.743.743 0 00-.753-.732.743.743 0 00-.754.732v1.065c0 .405.338.733.754.733a.743.743 0 00.753-.733v-1.065zm-9.42 9.784c-1.8 1.302-3.42 3.037-4.54 4.67a.767.767 0 01-1.045.204.72.72 0 01-.209-1.016c1.208-1.76 2.944-3.622 4.894-5.033 1.935-1.4 4.176-2.425 6.374-2.35.588.02 1.116.16 1.529.464.427.315.655.751.732 1.215.143.867-.233 1.853-.75 2.691a8.049 8.049 0 01-.482.693c.064.109.114.22.153.33.157.441.16.908.161 1.37v.111c1.27-.591 2.472-1.38 3.563-2.247a.768.768 0 011.06.101.725.725 0 01-.104 1.031c-1.217.97-2.568 1.85-3.996 2.495-.9.407-1.9.151-2.01-.95-.02-.192-.02-.385-.02-.579 0-.132 0-.264-.006-.396a7.97 7.97 0 01-.502.4c-.856.625-1.896 1.103-2.947 1.06-.269-.01-.644-.072-.92-.348-.331-.33-.315-.745-.228-1.018.493-1.541 3.007-2.54 4.568-2.21.153-.196.293-.396.417-.596.473-.767 1.077-2.107-.27-2.153-1.706-.058-3.608.748-5.423 2.061z" fill="#fff"/></svg>
